X: 15185
T: Gilles Le Bigot's
R: three-two
M: 3/2
K: Eminor
E>F G>B A2 G>A B>G E>D|E>F G>B (3ABA G>A B>G ED|
E>F G>B (3ABA G>A B>G E>D|E>F G>B (3ABA G>A B>G E2|
c2A>c B>A G>F E>F G>B|c2A>c B>A G>F G>B A>B|
c2A>c B>A G>F E>F G>B|c2A>c B>A G>F G>B AF|

